X:013 
T:Bath Medley, The 
B:CRE5.022 (Meascra Bath)
F:file ID: cre.5/013bath_m
N:I appended the O'Farrell version of this tune (in print ~1800) to 
demonstrate how little a tune can change over the years!
M:6/8
Q:160
R:jig
K:G
B:CRE5.022 (Meascra Bath)
D|G2g fdB|ecg dBG|EGc BGB|ABG FED|
G2g fdB|ecg dBG|EGc BGB|1 AEF G2:|\
[2 AEF GA||
G|:FAd fdA|GBd gdB|A^ce a2g|fAe def|
g2b fdB|ecg dBG|AGc BGB|1 AEF GA:|\
[2 AEF G3|]

%%%

